X: 1
T: The (Old) King's Reel
R: reel
Z: 2005 John Chambers <jc:trillian.mit.edu>
S: handwritten MS
M: C|
L: 1/8
K: Ador
   A \
| "Am"EA,A,B, A,2A,A | "Am"EA,EF "G"GEDB, | "Am"EA,A,B, C2CD | ECDC "G"B,G,G,A |
| "Am"EA,A,B, A,G,A,B, | "Am"~A,2 A,F "G"GEDB, | "Am"EA,A,B, ~C2CD | ECDC "G"B,G,G, |]
K: Amix
   d \
| "A"cA~A2 cded | "A"cABc "G"dBGB | "A"ceAB "Am"c2ce | gage "G"d^cBd |
| "A"cA~A2 cded | "A"cABc "G"dcBd | "Am"=c2BG AcBA | "G"GEDC B,G,G, |]
